X: 10051
T: BLUE BELLS OF SCOTLAND
C:
%R: march
B: Elias Howe "The Musician's Companion" Part 1 1842 p.5 #1
S: http://imslp.org/wiki/The_Musician's_Companion_(Howe,_Elias)
Z: 2015 John Chambers <jc:trillian.mit.edu>
N: The rhythms aren't right at the strain boundaries; not fixed.
M: 2/4
L: 1/8
K: G
% - - - - - - - - - - - - - - - - - - - - - - - - -
V: 1 staves=3
d |\
g2 fe | d2 ef/g/ | BB cA | G3 d |\
g2 a/g/f/e/ | d2 ef/g/ | BB cA | G3 :|
|: d>c |\
BG Bd | g>f eg | fd ec | d2 ef |\
g2 a/g/f/e/ | d2 ef/g/ | BB cA | G3 :|
% - - - - - - - - - - - - - - - - - - - - - - - - -
V: 2
d |\
BG cG | BG cd/e/ | GG AF | G3 d |\
BG cG | BG cd/e/ | GG AF | G3 :|
|: d2 |\
GB,GB | e>d ce | dB cA | B2 cA |\
BG cG | BG cd/e/ | GG AF | G3 :|
% - - - - - - - - - - - - - - - - - - - - - - - - -
V: 3 clef=bass middle=d
d' |\
g2 gg | g2 cc | d2 dd | G3 d' |\
g2 gg | g2 cc | d2 dd | G3 :|
|: d2 |\
gg gg | g2 gg | gg gg | g2 cd |\
g2 gg | g2 cc | dd dd | G3 :|
% - - - - - - - - - - - - - - - - - - - - - - - - -


